X: 41
T:Gan Ainm
R:Hornpipe
M:4/4
S:Sharon Shannon, Clare (accordian)
D:Session tape, Doolin 1987
Z:Bernie Stocks
K:D
d2de dBAG | (3FED FA dAFA | GABG E2ef |1 ge(3.e.e.e gece :|2 gece d4 :|
df~f2 ~g3a | ba(3.a.a.a baga | fdAF G2ef |1 ge(3.e.e.e gece :|2 gece d4 :|
<end>
<start>
